public/files/perm/themes/base/flux/icons/calculate.svg

<svg enable-background="new 0 0 24 24" fill="#282573" height="40" viewBox="0 0 24 24" width="40" xmlns="http://www.w3.org/2000/svg"><path d="m0 0h24v24h-24z" fill="none"/><path d="m21 3h-18v18h18zm-7.97 4.06 1.06-1.06 1.41 1.41 1.41-1.41 1.06 1.06-1.41 1.41 1.41 1.41-1.06 1.06-1.41-1.4-1.41 1.41-1.06-1.06 1.41-1.41zm-6.78.66h5v1.5h-5zm5.25 8.28h-2v2h-1.5v-2h-2v-1.5h2v-2h1.5v2h2zm6.5 1.25h-5v-1.5h5zm0-2.5h-5v-1.5h5z"/></svg>

<svg xmlns="http://www.w3.org/2000/svg" enable-background="new 0 0 24 24" height="40px" viewBox="0 0 24 24" width="40px" fill="#282573"><g><rect fill="none" height="24" width="24"/></g><g><path d="M21,3H3v18h18V3z M13.03,7.06L14.09,6l1.41,1.41L16.91,6l1.06,1.06l-1.41,1.41l1.41,1.41l-1.06,1.06L15.5,9.54l-1.41,1.41 l-1.06-1.06l1.41-1.41L13.03,7.06z M6.25,7.72h5v1.5h-5V7.72z M11.5,16h-2v2H8v-2H6v-1.5h2v-2h1.5v2h2V16z M18,17.25h-5v-1.5h5 V17.25z M18,14.75h-5v-1.5h5V14.75z"/></g></svg>
